icons/aparat.svg

<svg xmlns="http://www.w3.org/2000/svg" viewBox="-599 1169 24 24"><path d="M-584.4 1170.7c-5.7-1.4-11.4 2-12.8 7.7-1.4 5.7 2 11.4 7.7 12.8 5.7 1.4 11.4-2 12.8-7.7 1.4-5.6-2.1-11.3-7.7-12.8zm-4.7 2.4c1.6.4 2.6 2 2.2 3.7-.4 1.6-2 2.6-3.7 2.2-1.6-.4-2.6-2-2.2-3.7.4-1.7 2.1-2.7 3.7-2.2zm-3.5 13.8c-1.6-.4-2.6-2-2.2-3.7.4-1.6 2-2.6 3.7-2.2 1.6.4 2.6 2 2.2 3.7-.4 1.6-2.1 2.6-3.7 2.2zm4.2-6.3c.2-.8 1-1.2 1.7-1 .8.2 1.2 1 1 1.7s-1 1.2-1.7 1c-.7-.1-1.2-.9-1-1.7zm3.2 8.1c-1.6-.4-2.6-2-2.2-3.7s2-2.6 3.7-2.2c1.6.4 2.6 2 2.2 3.7-.4 1.7-2 2.6-3.7 2.2zm2-7.9c-1.6-.4-2.6-2-2.2-3.7.4-1.6 2-2.6 3.7-2.2 1.6.4 2.6 2 2.2 3.7-.4 1.6-2 2.6-3.7 2.2z"/><path d="M-588.6 1169.7l-2.3-.6c-2.1-.5-4.3.8-4.8 2.9l-.6 2.3c1.9-2.5 4.7-4.2 7.7-4.6zM-575.7 1179.4l.6-2.3c.5-2.1-.8-4.3-2.9-4.8l-2.3-.6c2.5 1.9 4.2 4.7 4.6 7.7zM-598.3 1182.5l-.6 2.3c-.5 2.1.8 4.3 2.9 4.8l2.3.6c-2.5-1.8-4.2-4.6-4.6-7.7zM-585.5 1192.3l2.3.6c2.1.5 4.3-.8 4.8-2.9l.6-2.3c-1.8 2.5-4.6 4.2-7.7 4.6z"/></svg>

<?xml version="1.0" encoding="utf-8"?>
<!-- Generator: Adobe Illustrator 19.0.0, SVG Export Plug-In . SVG Version: 6.00 Build 0)  -->
<svg version="1.1" id="Layer_1" xmlns="http://www.w3.org/2000/svg" xmlns:xlink="http://www.w3.org/1999/xlink" x="0px" y="0px"
	 viewBox="-599 1169 24 24" style="enable-background:new -599 1169 24 24;" xml:space="preserve">
<g>
	<path d="M-584.4,1170.7c-5.7-1.4-11.4,2-12.8,7.7c-1.4,5.7,2,11.4,7.7,12.8c5.7,1.4,11.4-2,12.8-7.7
		C-575.3,1177.9-578.8,1172.2-584.4,1170.7z M-589.1,1173.1c1.6,0.4,2.6,2,2.2,3.7c-0.4,1.6-2,2.6-3.7,2.2c-1.6-0.4-2.6-2-2.2-3.7
		C-592.4,1173.6-590.7,1172.6-589.1,1173.1z M-592.6,1186.9c-1.6-0.4-2.6-2-2.2-3.7c0.4-1.6,2-2.6,3.7-2.2c1.6,0.4,2.6,2,2.2,3.7
		C-589.3,1186.3-591,1187.3-592.6,1186.9z M-588.4,1180.6c0.2-0.8,1-1.2,1.7-1c0.8,0.2,1.2,1,1,1.7s-1,1.2-1.7,1
		C-588.1,1182.2-588.6,1181.4-588.4,1180.6z M-585.2,1188.7c-1.6-0.4-2.6-2-2.2-3.7s2-2.6,3.7-2.2c1.6,0.4,2.6,2,2.2,3.7
		C-581.9,1188.2-583.5,1189.1-585.2,1188.7z M-583.2,1180.8c-1.6-0.4-2.6-2-2.2-3.7c0.4-1.6,2-2.6,3.7-2.2c1.6,0.4,2.6,2,2.2,3.7
		C-579.9,1180.2-581.5,1181.2-583.2,1180.8z"/>
	<g>
		<path d="M-588.6,1169.7l-2.3-0.6c-2.1-0.5-4.3,0.8-4.8,2.9l-0.6,2.3C-594.4,1171.8-591.6,1170.1-588.6,1169.7z"/>
		<path d="M-575.7,1179.4l0.6-2.3c0.5-2.1-0.8-4.3-2.9-4.8l-2.3-0.6C-577.8,1173.6-576.1,1176.4-575.7,1179.4z"/>
		<path d="M-598.3,1182.5l-0.6,2.3c-0.5,2.1,0.8,4.3,2.9,4.8l2.3,0.6C-596.2,1188.4-597.9,1185.6-598.3,1182.5z"/>
		<path d="M-585.5,1192.3l2.3,0.6c2.1,0.5,4.3-0.8,4.8-2.9l0.6-2.3C-579.6,1190.2-582.4,1191.9-585.5,1192.3z"/>
	</g>
</g>
</svg>
